packages/components/src/reaction_selection_menu/images/bravo.svg

<?xml version="1.0" encoding="UTF-8"?>
<svg width="40px" height="40px" viewBox="0 0 40 40" version="1.1" xmlns="http://www.w3.org/2000/svg" xmlns:xlink="http://www.w3.org/1999/xlink">
    <title>02 Icons/Reactions/Bravo/40x40</title>
    <g id="02-Icons/Reactions/Bravo/40x40" stroke="none" stroke-width="1" fill="none" fill-rule="evenodd">
        <g>
            <circle id="Oval" fill="#F2F4F4" fill-rule="nonzero" cx="20" cy="20" r="20"></circle>
            <path d="M17.4506,30.484 L20.6793,30.1885 C20.6793,30.1885 31.937,23.6506 32.4441,23.3331 C33.2241,22.8448 34.0933,22.0304 33.4321,20.9876 C32.7095,19.8476 31.2757,20.5136 30.8992,20.7376 C30.5227,20.9616 32.3641,19.8508 32.7269,19.6348 C33.0897,19.4188 34.405,18.4487 33.7149,17.2893 C33.0248,16.1299 31.5585,16.8153 31.1821,17.0393 C30.8057,17.2633 31.4115,16.9002 31.7743,16.6842 C32.1371,16.4682 33.4524,15.4981 32.7623,14.3387 C32.0722,13.1793 30.6059,13.8647 30.2294,14.0887 C29.8529,14.3127 28.1113,15.3451 28.4741,15.1292 C28.8369,14.9133 30.1522,13.9431 29.4621,12.7836 C28.772,11.6241 27.3057,12.3096 26.9292,12.5336 C26.5527,12.7576 17.8,17.9571 17.8,17.9571 C18.4383141,17.2973453 18.9524389,16.5279027 19.3177,15.6857 C19.6537,14.3812 18.4755,12.7625 18.1705,12.8497 L14.2718,16.7791 L13.9457,22.4061 L12.9857,22.9215 L17.452,30.4831" id="Path" fill="#E4F2F4" fill-rule="nonzero"></path>
            <path d="M14.1713,24.9285 C17.6713,24.6385 25.4322,23.8931 25.4322,23.8931 L31.2722,20.4931 C32.0125277,20.0868025 32.9396567,20.2971234 33.4322,20.9831 C34.0922,22.0331 33.2222,22.8431 32.4422,23.3331 C31.9322,23.6531 20.6822,30.1931 20.6822,30.1931 L17.4522,30.4831 L14.1713,24.9285 Z" id="Path" fill="#B1DCE1" fill-rule="nonzero"></path>
            <rect id="Rectangle" fill="#199AA9" fill-rule="nonzero" transform="translate(13.221810, 27.893290) rotate(-30.556500) translate(-13.221810, -27.893290) " x="10.8974599" y="22.0623395" width="4.6487" height="11.6619" rx="0.3273"></rect>
            <rect id="Rectangle" stroke="#61746E" stroke-width="1.5" stroke-linecap="round" stroke-linejoin="round" transform="translate(13.221810, 27.893290) rotate(-30.556500) translate(-13.221810, -27.893290) " x="10.8974599" y="22.0623395" width="4.6487" height="11.6619" rx="0.3273"></rect>
            <path d="M13.1282,22.8889 L13.946,22.4061 L14.2721,16.7791 L18.1708,12.85 C18.4758,12.7628 19.654,14.3815 19.318,15.686 C18.9526172,16.5281191 18.4383913,17.2974593 17.8,17.9571 L19.5186,16.9415 L20.6043,16.2922" id="Path" stroke="#61746E" stroke-width="1.5" stroke-linecap="round" stroke-linejoin="round"></path>
            <path d="M19.2444,17.0912 C19.2444,17.0912 26.5528,12.7577 26.9292,12.5337 C27.3056,12.3097 28.7719,11.6242 29.4621,12.7837 C30.1523,13.9432 28.8369,14.9137 28.4741,15.1293 C28.1113,15.3449 23.82,17.8676 23.82,17.8676 C23.82,17.8676 29.853,14.3128 30.2294,14.0887 C30.6058,13.8646 32.0721,13.1792 32.7623,14.3387 C33.4525,15.4982 32.1371,16.4687 31.7743,16.6842 C31.4115,16.8997 25.1825,20.52 25.1825,20.52" id="Path" stroke="#61746E" stroke-width="1.5" stroke-linecap="round" stroke-linejoin="round"></path>
            <path d="M25.1825,20.5394 C25.1825,20.5394 30.8056,17.2634 31.1825,17.0394 C31.5594,16.8154 33.0252,16.1294 33.7153,17.2894 C34.4054,18.4494 33.0901,19.4194 32.7273,19.6349 C32.3645,19.8504 26.884,23.0772 26.884,23.0772 C26.884,23.0772 30.5232,20.9618 30.8996,20.7372 C31.276,20.5126 32.7096,19.8472 33.4325,20.9872 C34.0937,22.03 33.2244,22.8444 32.4445,23.3327 C31.9374,23.6502 20.6797,30.1881 20.6797,30.1881 L17.451,30.4836" id="Path" stroke="#61746E" stroke-width="1.5" stroke-linecap="round" stroke-linejoin="round"></path>
            <path d="M12.9138,30.6465 L16.1425,30.351 C16.1425,30.351 27.4,23.8131 27.9073,23.4956 C28.6873,23.0073 29.5566,22.1929 28.8953,21.1501 C28.1727,20.0106 26.7389,20.6761 26.3625,20.9001 C25.9861,21.1241 27.8273,20.0133 28.1902,19.7973 C28.5531,19.5813 29.8682,18.6112 29.1781,17.4518 C28.488,16.2924 27.0217,16.9778 26.6453,17.2018 C26.2689,17.4258 26.8747,17.0627 27.2375,16.8467 C27.6003,16.6307 28.9156,15.6606 28.2255,14.5012 C27.5354,13.3418 26.0691,14.0272 25.6927,14.2512 C25.3163,14.4752 23.5745,15.5076 23.9373,15.2912 C24.3001,15.0748 25.6154,14.1051 24.9253,12.9456 C24.2352,11.7861 22.7689,12.4716 22.3925,12.6956 C22.0161,12.9196 13.2635,18.119 13.2635,18.119 C13.9018141,17.4592453 14.4159389,16.6898027 14.7812,15.8476 C15.1172,14.5431 13.939,12.9244 13.6341,13.0116 L9.7353,16.9416 L9.4093,22.5685 L8.4493,23.084 L12.9156,30.6455" id="Path" fill="#E4F2F4" fill-rule="nonzero"></path>
            <path d="M9.6345,25.091 C13.1345,24.801 20.8954,24.0556 20.8954,24.0556 L26.7354,20.6556 C27.4757277,20.2493025 28.4028567,20.4596234 28.8954,21.1456 C29.5554,22.1956 28.6854,23.0056 27.9054,23.4956 C27.3954,23.8156 16.1454,30.3556 16.1454,30.3556 L12.9154,30.6456 L9.6345,25.091 Z" id="Path" fill="#B1DCE1" fill-rule="nonzero"></path>
            <rect id="Rectangle" fill="#199AA9" fill-rule="nonzero" transform="translate(8.684956, 28.055777) rotate(-30.556500) translate(-8.684956, -28.055777) " x="6.36060622" y="22.2248265" width="4.6487" height="11.6619" rx="0.3273"></rect>
            <rect id="Rectangle" stroke="#61746E" stroke-width="1.5" stroke-linecap="round" stroke-linejoin="round" transform="translate(8.684956, 28.055777) rotate(-30.556500) translate(-8.684956, -28.055777) " x="6.36060622" y="22.2248265" width="4.6487" height="11.6619" rx="0.3273"></rect>
            <path d="M8.5915,23.0514 L9.4093,22.5686 L9.7353,16.9417 L13.6341,13.0117 C13.939,12.9245 15.1172,14.5432 14.7812,15.8477 C14.4160333,16.6902223 13.9019039,17.4599766 13.2635,18.12 L14.9821,17.1044 L16.0678,16.4551" id="Path" stroke="#61746E" stroke-width="1.5" stroke-linecap="round" stroke-linejoin="round"></path>
            <path d="M14.7077,17.2537 C14.7077,17.2537 22.016,12.9202 22.3925,12.6962 C22.769,12.4722 24.2352,11.7867 24.9253,12.9462 C25.6154,14.1057 24.3001,15.0762 23.9373,15.2918 C23.5745,15.5074 19.2832,18.03 19.2832,18.03 C19.2832,18.03 25.3162,14.4752 25.6927,14.2511 C26.0692,14.027 27.5354,13.3411 28.2255,14.5011 C28.9156,15.6611 27.6003,16.6311 27.2375,16.8466 C26.8747,17.0621 20.6457,20.6821 20.6457,20.6821" id="Path" stroke="#61746E" stroke-width="1.5" stroke-linecap="round" stroke-linejoin="round"></path>
            <path d="M20.6457,20.7019 C20.6457,20.7019 26.2689,17.4259 26.6457,17.2019 C27.0225,16.9779 28.4884,16.2924 29.1785,17.4519 C29.8686,18.6114 28.5534,19.5819 28.1906,19.7974 C27.8278,20.0129 22.3469,23.24 22.3469,23.24 C22.3469,23.24 25.986,21.1246 26.3625,20.9 C26.739,20.6754 28.1725,20.0105 28.8953,21.15 C29.5566,22.1928 28.6873,23.0072 27.9073,23.4955 C27.4002,23.813 16.1425,30.3509 16.1425,30.3509 L12.9138,30.6464" id="Path" stroke="#61746E" stroke-width="1.5" stroke-linecap="round" stroke-linejoin="round"></path>
            <line x1="20.6954" y1="6.9056" x2="21.5154" y2="9.0356" id="Path" stroke="#61746E" stroke-width="1.5" stroke-linecap="round" stroke-linejoin="round"></line>
            <line x1="25.1054" y1="6.0456" x2="25.1454" y2="8.3256" id="Path" stroke="#61746E" stroke-width="1.5" stroke-linecap="round" stroke-linejoin="round"></line>
            <line x1="29.4654" y1="7.0056" x2="28.7254" y2="9.1556" id="Path" stroke="#61746E" stroke-width="1.5" stroke-linecap="round" stroke-linejoin="round"></line>
            <line x1="20.6954" y1="6.9056" x2="21.5154" y2="9.0356" id="Path" stroke="#61746E" stroke-width="1.5" stroke-linecap="round" stroke-linejoin="round"></line>
            <line x1="25.1054" y1="6.0456" x2="25.1454" y2="8.3256" id="Path" stroke="#61746E" stroke-width="1.5" stroke-linecap="round" stroke-linejoin="round"></line>
            <line x1="29.4654" y1="7.0056" x2="28.7254" y2="9.1556" id="Path" stroke="#61746E" stroke-width="1.5" stroke-linecap="round" stroke-linejoin="round"></line>
        </g>
    </g>
</svg>

<svg xmlns="http://www.w3.org/2000/svg" width="40" height="40" viewBox="0 0 40 40">
    <g fill="none" fill-rule="evenodd">
        <g>
            <g transform="translate(-112 -76) translate(112 76)">
                <circle cx="20" cy="20" r="20" fill="#F2F4F4" fill-rule="nonzero"/>
                <path fill="#E4F2F4" fill-rule="nonzero" d="M17.45 30.484l3.23-.296s11.257-6.537 11.764-6.855c.78-.488 1.65-1.303.988-2.345-.723-1.14-2.156-.474-2.533-.25-.376.224 1.465-.887 1.828-1.103.363-.216 1.678-1.186.988-2.346-.69-1.16-2.157-.474-2.533-.25-.376.224.23-.139.592-.355.363-.216 1.678-1.186.988-2.345-.69-1.16-2.156-.474-2.533-.25-.376.224-2.118 1.256-1.755 1.04.363-.216 1.678-1.186.988-2.345-.69-1.16-2.156-.474-2.533-.25L17.8 17.957c.638-.66 1.152-1.43 1.518-2.271.336-1.305-.843-2.924-1.148-2.836l-3.898 3.93-.326 5.626-.96.516 4.466 7.561"/>
                <path fill="#B1DCE1" fill-rule="nonzero" d="M14.171 24.928c3.5-.29 11.261-1.035 11.261-1.035l5.84-3.4c.74-.406 1.668-.196 2.16.49.66 1.05-.21 1.86-.99 2.35-.51.32-11.76 6.86-11.76 6.86l-3.23.29-3.28-5.555z"/>
                <rect width="4.649" height="11.662" x="10.897" y="22.062" fill="#199AA9" fill-rule="nonzero" rx=".327" transform="rotate(-30.556 13.222 27.893)"/>
                <rect width="4.649" height="11.662" x="10.897" y="22.062" stroke="#757575" stroke-linecap="round" stroke-linejoin="round" stroke-width="1.5" rx=".327" transform="rotate(-30.556 13.222 27.893)"/>
                <path stroke="#757575" stroke-linecap="round" stroke-linejoin="round" stroke-width="1.5" d="M13.128 22.889l.818-.483.326-5.627 3.899-3.929c.305-.087 1.483 1.532 1.147 2.836-.365.842-.88 1.611-1.518 2.271l1.719-1.015 1.085-.65"/>
                <path stroke="#757575" stroke-linecap="round" stroke-linejoin="round" stroke-width="1.5" d="M19.244 17.091l7.685-4.557c.377-.224 1.843-.91 2.533.25.69 1.16-.625 2.13-.988 2.345-.363.216-4.654 2.739-4.654 2.739s6.033-3.555 6.41-3.78c.376-.223 1.842-.909 2.532.25.69 1.16-.625 2.13-.988 2.346-.363.216-6.591 3.836-6.591 3.836M25.183 20.54s5.623-3.277 6-3.5c.376-.225 1.842-.91 2.532.25.69 1.16-.625 2.13-.988 2.345-.362.215-5.843 3.442-5.843 3.442s3.64-2.115 4.016-2.34c.376-.224 1.81-.89 2.532.25.662 1.043-.208 1.857-.988 2.346-.507.317-11.764 6.855-11.764 6.855l-3.229.296"/>
                <path fill="#E4F2F4" fill-rule="nonzero" d="M12.914 30.646l3.228-.295s11.258-6.538 11.765-6.855c.78-.489 1.65-1.303.988-2.346-.722-1.14-2.156-.474-2.532-.25-.377.224 1.464-.887 1.827-1.103.363-.216 1.678-1.186.988-2.345-.69-1.16-2.156-.474-2.533-.25-.376.224.23-.14.593-.355.362-.216 1.678-1.186.988-2.346-.69-1.16-2.157-.474-2.533-.25-.377.224-2.119 1.257-1.756 1.04.363-.216 1.678-1.186.988-2.345-.69-1.16-2.156-.474-2.533-.25l-9.128 5.423c.638-.66 1.152-1.43 1.517-2.271.336-1.305-.842-2.924-1.147-2.836l-3.899 3.93-.326 5.627-.96.515 4.467 7.561"/>
                <path fill="#B1DCE1" fill-rule="nonzero" d="M9.634 25.091c3.5-.29 11.261-1.035 11.261-1.035l5.84-3.4c.74-.407 1.668-.196 2.16.49.66 1.05-.21 1.86-.99 2.35-.51.32-11.76 6.86-11.76 6.86l-3.23.29-3.28-5.555z"/>
                <rect width="4.649" height="11.662" x="6.361" y="22.225" fill="#199AA9" fill-rule="nonzero" rx=".327" transform="rotate(-30.556 8.685 28.056)"/>
                <rect width="4.649" height="11.662" x="6.361" y="22.225" stroke="#757575" stroke-linecap="round" stroke-linejoin="round" stroke-width="1.5" rx=".327" transform="rotate(-30.556 8.685 28.056)"/>
                <path stroke="#757575" stroke-linecap="round" stroke-linejoin="round" stroke-width="1.5" d="M8.591 23.051l.818-.482.326-5.627 3.9-3.93c.304-.088 1.482 1.531 1.146 2.836-.365.842-.88 1.612-1.518 2.272l1.72-1.016 1.085-.649"/>
                <path stroke="#757575" stroke-linecap="round" stroke-linejoin="round" stroke-width="1.5" d="M14.708 17.254l7.684-4.558c.377-.224 1.843-.91 2.533.25.69 1.16-.625 2.13-.988 2.346-.363.215-4.654 2.738-4.654 2.738s6.033-3.555 6.41-3.779c.376-.224 1.842-.91 2.532.25.69 1.16-.625 2.13-.988 2.346-.362.215-6.591 3.835-6.591 3.835M20.646 20.702s5.623-3.276 6-3.5c.377-.224 1.842-.91 2.532.25.69 1.16-.625 2.13-.987 2.345-.363.216-5.844 3.443-5.844 3.443s3.639-2.115 4.015-2.34c.377-.225 1.81-.89 2.533.25.662 1.043-.208 1.857-.988 2.346-.507.317-11.765 6.855-11.765 6.855l-3.228.295"/>
                <path stroke="#61746E" stroke-linecap="round" stroke-linejoin="round" stroke-width="1.5" d="M20.695 6.906L21.515 9.036M25.105 6.046L25.145 8.326M29.465 7.006L28.725 9.156"/>
                <path stroke="#757575" stroke-linecap="round" stroke-linejoin="round" stroke-width="1.5" d="M20.695 6.906L21.515 9.036M25.105 6.046L25.145 8.326M29.465 7.006L28.725 9.156"/>
            </g>
        </g>
    </g>
</svg>
